X:1
T:When Pat Came Over the Hill
M:2/4
L:1/16
K:Eb
 z4 G3 F| E3 EE E E2| E6 F2| G B3 B3 B| B6 B2| G3 G G3 F| E3 F G3 B|\
 c3 c c4-| c6 B2| cc c2 ee e2-| e6 EE| G3 B B3 B| B6 G2| GG G2 G3 F|\
 E3 C C3 D|E-E G2 cc c2-| c4 B3 B| G2 GG G3 F| E6 F2| G2 BB B3 A| B6 B2|\
 G2 GG G3 F| E3 F G2 BB| cc B2 c4-| c4 z4|
